X: 2755
T: Bison Polska
C: av Olov Johansson
S: Bruce Sagan's "scanfolk" session archive 2020-11-22
S: Karen Myers BlueRoseMusic.org (#2755)
Z: 2021 John Chambers <jc:trillian.mit.edu>
R: polska
M: 3/4
L: 1/8
K: Am
%%continueall
"^A"[|] z |\
EA c2 (B>A) | (BG) G3 G- | GB dd BB | c2 ed/c/ dB | (cA) E3 E- |
EA c2 (B>A) | (BG) G3 G- | GB dd BB | c2 ed/c/ dB | (cA) A3 :|
"^B"|: E- |\
EA c2 (eg) | ^f2 fe/d/ e2- | eg ^fd/f/ ag/f/ | ge c2 (eg) |
^f2 fe/d/ e2- | eg ^f(e/d/ e)(c | A)E F2 (Ac) | (BG) G3 G- |
GB dd BB | c2 ed/c/ dB | (cA) A3 |]
%
N: The staff breaks are from Karen's 5-staff transcription.
N: The continueall tells formatters to arrange staffs for the chosen scale value.
